X: 56
T:Clawdd Offa
T:Sawdl y Fuwch
M:6/8
L:1/8
Q:140
C:Trad
S:Blodau'r Grug Collection Vol. 1
R:Set Dance
A:Wales
Z:brian_martin12345@yahoo.com
K:D
A|d2dA2G|FA2-A2A|d2dF2G|A3-A2A|d2d Bcd|e2dA2A|A2de2e|d3-d2:||!
c/d/|e2ec2d|e3e2d/e/|f2fd2e|f3-f2e|dcB A2A|BAGF2A|Bcde2c|d3-d2:||!
d|d2c Bde|f>ed/c/B2A|d2f edc|B3A2A|dcB A2A|BAGF2A|Bcd e2c|d3-d2:||

